packages/core/src/svgs/tokens/mono/IXO.svg

<svg width="24" height="24" viewBox="0 0 24 24" fill="none" xmlns="http://www.w3.org/2000/svg">
<path fill-rule="evenodd" clip-rule="evenodd" d="M3.53847 9.17947C3.94649 9.17947 4.33781 9.01738 4.62633 8.72886C4.91484 8.44034 5.07693 8.04903 5.07693 7.641C5.07693 7.23297 4.91484 6.84166 4.62633 6.55315C4.33781 6.26463 3.94649 6.10254 3.53847 6.10254C3.13045 6.10254 2.73913 6.26463 2.45061 6.55315C2.16209 6.84166 2 7.23297 2 7.641C2 8.04903 2.16209 8.44034 2.45061 8.72886C2.73913 9.01738 3.13045 9.17947 3.53847 9.17947ZM5.07693 9.69229H2V17.8974H5.07693V9.69229ZM5.58975 11.8051V9.69229H7.6154L9.69231 11.7539L11.7436 9.69229H13.7949V11.7487L11.7539 13.8051L13.7949 15.8359V17.8974H11.718L9.69745 15.8871L7.70258 17.8974H5.58975V15.8769L7.62565 13.8308L5.58975 11.8051ZM22 13.7949C22 14.8829 21.5678 15.9265 20.7984 16.6958C20.029 17.4652 18.9856 17.8974 17.8975 17.8974C16.8093 17.8974 15.7659 17.4652 14.9965 16.6958C14.2271 15.9265 13.7949 14.8829 13.7949 13.7949C13.7949 12.7068 14.2271 11.6633 14.9965 10.8939C15.7659 10.1245 16.8093 9.69229 17.8975 9.69229C18.9856 9.69229 20.029 10.1245 20.7984 10.8939C21.5678 11.6633 22 12.7068 22 13.7949ZM19.436 13.7949C19.436 14.2029 19.2738 14.5942 18.9853 14.8827C18.6968 15.1712 18.3055 15.3333 17.8975 15.3333C17.4895 15.3333 17.0981 15.1712 16.8096 14.8827C16.5211 14.5942 16.3589 14.2029 16.3589 13.7949C16.3589 13.3869 16.5211 12.9956 16.8096 12.707C17.0981 12.4185 17.4895 12.2564 17.8975 12.2564C18.3055 12.2564 18.6968 12.4185 18.9853 12.707C19.2738 12.9956 19.436 13.3869 19.436 13.7949Z" fill="white"/>
</svg>

<svg xmlns="http://www.w3.org/2000/svg" width="24" height="24" fill="none" viewBox="0 0 24 24">
    <path fill="#fff" fill-rule="evenodd" d="M3.538 9.18a1.538 1.538 0 1 0 0-3.077 1.538 1.538 0 0 0 0 3.076m1.539.512H2v8.205h3.077zm.513 2.113V9.692h2.025l2.077 2.062 2.052-2.062h2.05v2.057l-2.04 2.056 2.04 2.03v2.062h-2.076l-2.02-2.01-1.995 2.01H5.59v-2.02l2.036-2.046zM22 13.795a4.102 4.102 0 1 1-8.205 0 4.102 4.102 0 0 1 8.205 0m-2.564 0a1.539 1.539 0 1 1-3.077 0 1.539 1.539 0 0 1 3.077 0" clip-rule="evenodd"/>
</svg>
